X:1
T:Title
%%score { ( 1 3 4 ) | ( 2 5 6 ) }
L:1/8
M:4/4
K:Bb
V:1 treble nm="Grand Piano"
V:3 treble 
V:4 treble 
V:2 bass 
V:5 bass 
V:6 bass 
V:1
 z4 z2[Q:1/4=92] [DB]>[Ec] | [Fd]>[Fd] [Fd]>[DB] [Ec]<[DB] [DB]>[DB] | c>B c<d [DB]2 [DB]>[Ec] | %3
 [Fd]>[Fd] [Fd]>[DB] [Ec]<[DB] [DB]>[FB] | [=Ec]>[EG] [FB]<[EB] A2 c>d | e>d c>B [Fd]2 [Fd]>[Ec] | %6
 [Ec]<[DB] [EB]>[EG] [DF]2 [B,D]>[CE] | [DF]>[DB] [DB]>[Ec] [Fd]2 [Ge]>[Ge] |[M:7/8] d>Bc<c [DB]3 | %9
[M:1/4] (3:2:2F/A/4GF/ |[M:4/4] c4 z4 |[M:3/4] d6 |[M:1/4] D>[CE] | %13
[M:35/32] [DF]>[DB][DB]>[Ec][Fd]<[Fd][Ge]-(3:2:4[Ge]3/2-[Ge]/4[Ge]3/4-[Ge]/8 | %14
[M:7/8] d3/2-d/4 z/4 z/ c/- c-c/4 z/4 z/ z2 |] %15
V:2
 z4 z2 [B,,F,]>[B,,F,] | [B,,B,]>[B,,B,] [B,,B,]>[B,,F,] [B,,F,]<[B,,F,] [B,,F,]>[B,,F,] | %2
 [F,A,E]>[F,B,D] [F,A,E]<[F,A,F] [B,,B,]2 [B,,F,]>[B,,F,] | %3
 [B,,B,]>[B,,B,] [B,,B,]>[B,,F,] [B,,F,]<[B,,F,] [B,,F,]>[D,F,] | %4
 [C,G,]>[C,C] [C,C]<[C,C][K:treble] [F,CF]2 [F,A,F]>[F,B,F] | %5
 [F,CF]>[G,B,F][K:bass] [F,A,F]>[F,DF] [B,,B,]2 [B,,B,]>[B,,F,] | %6
 [B,,F,]<[B,,F,] [E,G,]>[E,B,] [B,,B,]2 [B,,F,]>[B,,F,] | %7
 [B,,B,]>[B,,F,] [B,,F,]>[B,,F,] [B,,B,]2 [E,B,]>[E,B,] | %8
[M:7/8] [F,B,F]>[F,D][F,A,E]<[F,A,E] [B,,B,]3 |[M:1/4] z2 | %10
[M:4/4] z z/ [F,A,]/ [F,A,]>[F,A,] [F,A,]2 z2 |[M:3/4] z z/ [B,,B,]/ [B,,B,]>[B,,B,] [B,,B,]2 | %12
[M:1/4] [B,,F,B,]>[B,,F,] | %13
[M:35/32] [B,,B,]>[B,,F,][B,,F,]>[B,,F,][B,,B,]<[B,,B,][E,B,]-(3:2:4[E,B,]3/2-[E,B,]/4[E,B,]3/4-[E,B,]/8 | %14
[M:7/8] z z/ D/-D/4 z/4 z/ z z z2 |] %15
V:3
 x8 | x8 | x8 | x8 | x8 | x8 | x8 | x8 |[M:7/8] x7 |[M:1/4] x2 | %10
[M:4/4] z z/ E/ E>E E3/2(3:2:2F/A/4 G>F |[M:3/4] z z/ F/ F>F F2 |[M:1/4] x2 |[M:35/32] x35/4 | %14
[M:7/8] z z/ B/-B/4 z/4 z/ z z z2 |] %15
V:4
 x8 | x8 | x8 | x8 | x8 | x8 | x8 | x8 |[M:7/8] x7 |[M:1/4] x2 |[M:4/4] x8 |[M:3/4] x6 | %12
[M:1/4] x2 |[M:35/32] x35/4 |[M:7/8] z2 .c z [DB]3 |] %15
V:5
 x8 | x8 | x8 | x8 | x4[K:treble] x4 | x2[K:bass] x6 | x8 | x8 |[M:7/8] x7 |[M:1/4] x2 | %10
[M:4/4] x8 |[M:3/4] x6 |[M:1/4] x2 |[M:35/32] x35/4 | %14
[M:7/8] [B,F]3/2-[B,F]/4 z/4 z/ [F,A,E]/- [F,A,E]-[F,A,E]/4 z/4 z/ z2 |] %15
V:6
 x8 | x8 | x8 | x8 | x4[K:treble] x4 | x2[K:bass] x6 | x8 | x8 |[M:7/8] x7 |[M:1/4] x2 | %10
[M:4/4] x8 |[M:3/4] x6 |[M:1/4] x2 |[M:35/32] x35/4 |[M:7/8] F,>F,.[F,A,E] z [B,,B,]3 |] %15

